**kern	**silbe	**kern	**silbe	**harmony	**phrase	**leadinstrument	**rhyme	**harte
*ICvox	*	*ICvox	*	*M4/4	*	*	*	*M4/4
*VRlead	*	*VRbacking*VRharmonize	*	*	*	*	*	*
*Hstimme	*	*Nstimme	*	*	*	*	*	*
*d:	*	*d:	*	*d:	*	*	*	*d:
*M4/4	*	*M4/4	*	*	*	*	*	*
*clefC3	*	*clefC3	*	*	*	*	*	*
r;	.	r;	.	1r;	.	r	.	N.C.
r;	.	r;	.	1r;	.	r	.	N.C.
=1	=1	=1	=1	=1	=1	=1	=1	=1
*>Letter>A	*>Letter>A	*>Letter>A	*>Letter>A	*>Letter>A	*>Letter>A	*>Letter>A	*>Letter>A	*>Letter>A
*>Label>Intro	*>Label>Intro	*>Label>Intro	*>Label>Intro	*>Label>Intro	*>Label>Intro	*>Label>Intro	*>Label>Intro	*>Label>Intro
1r	.	1r	.	2DM	newline	guitar	.	D:5
.	.	.	.	2CM	.	guitar	.	C:5
=2	=2	=2	=2	=2	=2	=2	=2	=2
1r	.	1r	.	1AM	.	guitar	.	A:5
=3	=3	=3	=3	=3	=3	=3	=3	=3
4r	.	1r	.	1AM	.	voice	.	A:5
8~B	Ba-	.	.	.	.	.	.	.
8~A	-by,	.	.	.	.	.	.	.
8c	I	.	.	.	.	.	.	.
4d	feel	.	.	.	.	.	.	.
[8f	good	.	.	.	.	.	.	.
=4	=4	=4	=4	=4	=4	=4	=4	=4
*>Letter>B	*>Letter>B	*>Letter>B	*>Letter>B	*>Letter>B	*>Letter>B	*>Letter>B	*>Letter>B	*>Letter>B
*>Label>Chorus	*>Label>Chorus	*>Label>Chorus	*>Label>Chorus	*>Label>Chorus	*>Label>Chorus	*>Label>Chorus	*>Label>Chorus	*>Label>Chorus
8f]	_	1r	.	4CM	newline	voice	.	C:5
8r	.	.	.	.	.	.	.	.
4r	.	.	.	4Dm	.	voice	.	D:5
2r	.	.	.	4FM	.	voice	.	F:5
.	.	.	.	4CM	.	voice	.	C:5
=5	=5	=5	=5	=5	=5	=5	=5	=5
4r	.	1r	.	1Dm	.	voice	.	D:5
8d	from	.	.	.	.	.	.	.
8d	the	.	.	.	.	.	.	.
8f	mo-	.	.	.	.	.	.	.
8d	-ment	.	.	.	.	.	.	.
8d	I	.	.	.	.	.	.	.
[8d	rise	.	.	.	.	.	.	.
=6	=6	=6	=6	=6	=6	=6	=6	=6
4d]	_	1r	.	4CM	.	voice	.	C:5
4r	.	.	.	4Dm	.	voice	.	D:5
2r	.	.	.	4FM	.	voice	.	F:5
.	.	.	.	4CM	.	voice	.	C:5
=7	=7	=7	=7	=7	=7	=7	=7	=7
4r	.	1r	.	1Dm	.	voice	.	D:5
8cq	_	.	.	.	.	.	.	.
4d	Feel	.	.	.	.	.	.	.
8cq	_	.	.	.	.	.	.	.
4d	good	.	.	.	.	.	.	.
8dq	_	.	.	.	.	.	.	.
4A	from	.	.	.	.	.	.	.
=8	=8	=8	=8	=8	=8	=8	=8	=8
1r	.	2c 2f	Mor-	2FM	newline	voice	.	F:5
.	.	2d 2g	-ning!	2GM	.	voice	.	G:5
=9	=9	=9	=9	=9	=9	=9	=9	=9
4r	.	2d 2f	_	2B-M	.	voice	.	B-:5
8d	'till	.	.	.	.	.	.	.
8d	the	.	.	.	.	.	.	.
8e	end	2c# 2e	_	2AM	.	voice	.	A:5
8d	of	.	.	.	.	.	.	.
8d	the	.	.	.	.	.	.	.
8cq	_	.	.	.	.	.	.	.
[8d	day	.	.	.	.	.	.	.
=10	=10	=10	=10	=10	=10	=10	=10	=10
4d]	_	1r	.	4CM	newline	voice	.	C:5
4r	.	.	.	4Dm	.	voice	.	D:5
2r	.	.	.	4FM	.	voice	.	F:5
.	.	.	.	4CM	.	voice	.	C:5
=11	=11	=11	=11	=11	=11	=11	=11	=11
4r	.	4r	.	1Dm	.	voice	.	D:5
8d	'Till	8c	'Till	.	.	.	.	.
8d	the	8d	the	.	.	.	.	.
8e	end	8e	end	.	.	.	.	.
8d	of	8d	of	.	.	.	.	.
8d	the	8d	the	.	.	.	.	.
8cq	_	.	.	.	.	.	.	.
[8d	day	8c	day	.	.	.	.	.
=12	=12	=12	=12	=12	=12	=12	=12	=12
4d]	_	4d	_	4CM	.	voice	.	C:5
4r	.	4r	.	4Dm	.	voice	.	D:5
2r	.	2r	.	4FM	.	voice	.	F:5
.	.	.	.	4CM	.	voice	.	C:5
=13	=13	=13	=13	=13	=13	=13	=13	=13
2r	.	1r	.	2Dm	.	voice	.	D:5
4~d	Yeah	.	.	2CM	.	voice	.	C:5
4r	.	.	.	.	.	.	.	.
=14	=14	=14	=14	=14	=14	=14	=14	=14
*>Letter>C	*>Letter>C	*>Letter>C	*>Letter>C	*>Letter>C	*>Letter>C	*>Letter>C	*>Letter>C	*>Letter>C
*>Label>Verse	*>Label>Verse	*>Label>Verse	*>Label>Verse	*>Label>Verse	*>Label>Verse	*>Label>Verse	*>Label>Verse	*>Label>Verse
8d	You	1r	.	2Dm	newline	voice	.	D:5
4d	and	.	.	.	.	.	.	.
[8d	me	.	.	.	.	.	A	.
4d]	_	.	.	2CM	.	voice	.	C:5
4r	.	.	.	.	.	.	.	.
=15	=15	=15	=15	=15	=15	=15	=15	=15
2r	.	1r	.	2FM	.	voice	.	F:5
8f	we	.	.	2CM	.	voice	.	C:5
8d	live	.	.	.	.	.	.	.
8c	this	.	.	.	.	.	.	.
8c	life	.	.	.	.	.	B	.
=16	=16	=16	=16	=16	=16	=16	=16	=16
4d	_	1r	.	2Dm	.	voice	.	D:5
4d	uh	.	.	.	.	.	.	.
2r	.	.	.	2CM	.	voice	.	C:5
=17	=17	=17	=17	=17	=17	=17	=17	=17
2r	.	1r	.	2FM	.	voice	.	F:5
4r	.	.	.	2CM	.	voice	.	C:5
8r	.	.	.	.	.	.	.	.
8c	From	.	.	.	.	.	.	.
=18	=18	=18	=18	=18	=18	=18	=18	=18
8cq	_	.	.	.	.	.	.	.
4d	when	1r	.	1Dm	newline	voice	.	D:5
4d	we	.	.	.	.	.	A	.
4d	get	.	.	.	.	.	.	.
4d	up	.	.	.	.	.	.	.
=19	=19	=19	=19	=19	=19	=19	=19	=19
4r	.	1r	.	1CM	.	voice	.	C:5
8c	'till	.	.	.	.	.	.	.
8c	we	.	.	.	.	.	.	.
8d	go	.	.	.	.	.	.	.
8c	sleep	.	.	.	.	.	A	.
8G	at	.	.	.	.	.	.	.
8Gq	_	.	.	.	.	.	.	.
[8A	night	.	.	.	.	.	B	.
=20	=20	=20	=20	=20	=20	=20	=20	=20
1A]	_	[1A	Night	1FM	.	voice	.	F:5
=21	=21	=21	=21	=21	=21	=21	=21	=21
[2c#	_	2A_	_	1AM	.	voice	.	A:5
8c#]	_	8A]	_	.	.	.	.	.
8r	.	8r	.	.	.	.	.	.
4r	.	4r	.	.	.	.	.	.
=22	=22	=22	=22	=22	=22	=22	=22	=22
*>Letter>B	*>Letter>B	*>Letter>B	*>Letter>B	*>Letter>B	*>Letter>B	*>Letter>B	*>Letter>B	*>Letter>B
*>Label>Chorus	*>Label>Chorus	*>Label>Chorus	*>Label>Chorus	*>Label>Chorus	*>Label>Chorus	*>Label>Chorus	*>Label>Chorus	*>Label>Chorus
4d	You	1r	.	1Dm	newline	voice	.	D:5
4d	and	.	.	.	.	.	.	.
8d	me,	.	.	.	.	.	.	.
4d	we're	.	.	.	.	.	.	.
8dq	_	.	.	.	.	.	.	.
[8e	free	.	.	.	.	.	A	.
=23	=23	=23	=23	=23	=23	=23	=23	=23
4.e]	_	1r	.	1CM	.	voice	.	C:5
8r	.	.	.	.	.	.	.	.
2r	.	.	.	.	.	.	.	.
=24	=24	=24	=24	=24	=24	=24	=24	=24
4f	We	1r	.	1Dm	.	voice	.	D:5
4f	do	.	.	.	.	.	.	.
4f	as	.	.	.	.	.	.	.
4f	we	.	.	.	.	.	.	.
=25	=25	=25	=25	=25	=25	=25	=25	=25
2e	please,	1r	.	2CM	.	voice	A	C:5
8cq	_	.	.	.	.	.	.	.
16e	yeah,	.	.	2B-M	.	voice	.	B-:5
16d	_	.	.	.	.	.	.	.
8c	_	.	.	.	.	.	.	.
4c	from	.	.	.	.	.	.	.
=26	=26	=26	=26	=26	=26	=26	=26	=26
1r	.	2c 2f	Mor-	2FM	newline	voice	.	F:5
.	.	2d 2g	-ning!	2GM	.	voice	.	G:5
=27	=27	=27	=27	=27	=27	=27	=27	=27
4r	.	2d 2f	_	2B-M	.	voice	.	B-:5
8d	'till	.	.	.	.	.	.	.
8d	the	.	.	.	.	.	.	.
8~e	end	2c# 2e	_	2AM	.	voice	.	A:5
8d	of	.	.	.	.	.	.	.
8d	the	.	.	.	.	.	.	.
8cq	_	.	.	.	.	.	.	.
[8d	day	.	.	.	.	.	.	.
=28	=28	=28	=28	=28	=28	=28	=28	=28
4d]	_	1r	.	4CM	newline	guitar	.	C:5
4r	.	.	.	4Dm	.	guitar	.	D:5
2r	.	.	.	4FM	.	guitar	.	F:5
.	.	.	.	4CM	.	guitar	.	C:5
=29	=29	=29	=29	=29	=29	=29	=29	=29
4r	.	4r	.	1Dm	.	guitar	.	D:5
8d	'Till	8~c	'Till	.	.	.	.	.
8d	the	8d	the	.	.	.	.	.
8f	end	8~f	end	.	.	.	.	.
8d	of	8d	of	.	.	.	.	.
8d	the	8d	the	.	.	.	.	.
8cq	_	.	.	.	.	.	.	.
[8d	day	8~c	day	.	.	.	.	.
=30	=30	=30	=30	=30	=30	=30	=30	=30
4d]	_	4d	_	4CM	.	guitar	.	C:5
4r	.	4r	.	4Dm	.	guitar	.	D:5
2r	.	2r	.	4FM	.	guitar	.	F:5
.	.	.	.	4CM	.	guitar	.	C:5
=31	=31	=31	=31	=31	=31	=31	=31	=31
2r	.	1r	.	2Dm	.	guitar	.	D:5
16~d	Yeah	.	.	2CM	.	guitar	.	C:5
16~A	_	.	.	.	.	.	.	.
8r	.	.	.	.	.	.	.	.
4r	.	.	.	.	.	.	.	.
=32	=32	=32	=32	=32	=32	=32	=32	=32
*>Letter>C	*>Letter>C	*>Letter>C	*>Letter>C	*>Letter>C	*>Letter>C	*>Letter>C	*>Letter>C	*>Letter>C
*>Label>Verse	*>Label>Verse	*>Label>Verse	*>Label>Verse	*>Label>Verse	*>Label>Verse	*>Label>Verse	*>Label>Verse	*>Label>Verse
8d	I	1r	.	2Dm	newline	voice	.	D:5
8d	get	.	.	.	.	.	.	.
8d	up	.	.	.	.	.	.	.
8r	.	.	.	.	.	.	.	.
2r	.	.	.	2CM	.	voice	.	C:5
=33	=33	=33	=33	=33	=33	=33	=33	=33
4r	.	1r	.	2FM	.	voice	.	F:5
8r	.	.	.	.	.	.	.	.
8c	and	.	.	.	.	.	.	.
8f	I	.	.	2CM	.	voice	.	C:5
8d	see	.	.	.	.	.	.	.
8c	the	.	.	.	.	.	.	.
[8d	sun	.	.	.	.	.	C	.
=34	=34	=34	=34	=34	=34	=34	=34	=34
8d]	_	1r	.	2Dm	.	voice	.	D:5
8d	up	.	.	.	.	.	.	.
4r	.	.	.	.	.	.	.	.
2r	.	.	.	2CM	.	voice	.	C:5
=35	=35	=35	=35	=35	=35	=35	=35	=35
2r	.	1r	.	2FM	.	voice	.	F:5
4r	.	.	.	2CM	.	voice	.	C:5
8r	.	.	.	.	.	.	.	.
8c	And	.	.	.	.	.	.	.
=36	=36	=36	=36	=36	=36	=36	=36	=36
8cq	_	.	.	.	.	.	.	.
4d	I	1r	.	1Dm	newline	voice	.	D:5
8cq	_	.	.	.	.	.	.	.
4d	feel	.	.	.	.	.	.	.
8cq	_	.	.	.	.	.	.	.
4d	good,	.	.	.	.	.	.	.
8cq	_	.	.	.	.	.	.	.
8d	yeah	.	.	.	.	.	.	.
8c	_	.	.	.	.	.	.	.
=37	=37	=37	=37	=37	=37	=37	=37	=37
4r	.	1r	.	1CM	.	voice	.	C:5
8c	cuz	.	.	.	.	.	.	.
8c	my	.	.	.	.	.	.	.
8d	life	.	.	.	.	.	.	.
8c	has	.	.	.	.	.	.	.
8G	be-	.	.	.	.	.	.	.
8Gq	_	.	.	.	.	.	.	.
[8A	-gun	.	.	.	.	.	C	.
=38	=38	=38	=38	=38	=38	=38	=38	=38
1A]	_	[1A	Gun	1FM	.	voice	C	F:5
=39	=39	=39	=39	=39	=39	=39	=39	=39
2.c#	_	2.A]	_	1AM	.	voice	.	A:5
4r	.	4r	.	.	.	.	.	.
=40	=40	=40	=40	=40	=40	=40	=40	=40
*>Letter>B	*>Letter>B	*>Letter>B	*>Letter>B	*>Letter>B	*>Letter>B	*>Letter>B	*>Letter>B	*>Letter>B
*>Label>Chorus	*>Label>Chorus	*>Label>Chorus	*>Label>Chorus	*>Label>Chorus	*>Label>Chorus	*>Label>Chorus	*>Label>Chorus	*>Label>Chorus
4d	You	1f	Ah	1Dm	newline	voice	.	D:5
4d	and	.	.	.	.	.	.	.
8d	me,	.	.	.	.	.	.	.
4d	we're	.	.	.	.	.	.	.
8dq	_	.	.	.	.	.	.	.
[8e	free	.	.	.	.	.	A	.
=41	=41	=41	=41	=41	=41	=41	=41	=41
4.e]	_	1e	_	1CM	.	voice	.	C:5
8r	.	.	.	.	.	.	.	.
2r	.	.	.	.	.	.	.	.
=42	=42	=42	=42	=42	=42	=42	=42	=42
4f	We	1f	_	1Dm	.	voice	.	D:5
4f	do	.	.	.	.	.	.	.
4f	as	.	.	.	.	.	.	.
4f	we	.	.	.	.	.	.	.
=43	=43	=43	=43	=43	=43	=43	=43	=43
4.e	please,	[2e [2g	_	2CM	.	voice	A	C:5
8d	y-	.	.	.	.	.	.	.
16e	-yeah,	8e] 8g]	_	2B-M	.	voice	.	B-:5
16d	_	.	.	.	.	.	.	.
8c	_	8r	.	.	.	.	.	.
8d	from	4r	.	.	.	.	.	.
8c	_	.	.	.	.	.	.	.
=44	=44	=44	=44	=44	=44	=44	=44	=44
1r	.	2c 2f	Mor-	2FM	newline	voice	.	F:5
.	.	2d 2g	-ning!	2GM	.	voice	.	G:5
=45	=45	=45	=45	=45	=45	=45	=45	=45
4r	.	2d 2f	_	2B-M	.	voice	.	B-:5
8d	'Till	.	.	.	.	.	.	.
8d	the	.	.	.	.	.	.	.
8~e	end	2c# 2e	_	2AM	.	voice	.	A:5
8d	of	.	.	.	.	.	.	.
8d	the	.	.	.	.	.	.	.
8cq	_	.	.	.	.	.	.	.
[8d	day	.	.	.	.	.	.	.
=46	=46	=46	=46	=46	=46	=46	=46	=46
4d]	_	1r	.	1Dm	newline	guitar	.	D:5
4r	.	.	.	.	.	.	.	.
2r	.	.	.	.	.	.	.	.
=47	=47	=47	=47	=47	=47	=47	=47	=47
4r	.	1r	.	1CM	.	guitar	.	C:5
8d	'Till	.	.	.	.	.	.	.
8d	the	.	.	.	.	.	.	.
8f	end	.	.	.	.	.	.	.
8d	of	.	.	.	.	.	.	.
8d	the	.	.	.	.	.	.	.
8cq	_	.	.	.	.	.	.	.
[8d	day	.	.	.	.	.	.	.
=48	=48	=48	=48	=48	=48	=48	=48	=48
4d]	_	1r	.	1Dm	.	guitar	.	D:5
4r	.	.	.	.	.	.	.	.
2r	.	.	.	.	.	.	.	.
=49	=49	=49	=49	=49	=49	=49	=49	=49
4r	.	4r	.	1CM	.	guitar	.	C:5
8d	'Till	8~f	'Till	.	.	.	.	.
8d	the	8~f	the	.	.	.	.	.
8f	end	8a	end	.	.	.	.	.
8d	of	8f	of	.	.	.	.	.
8d	the	8f	the	.	.	.	.	.
8cq	_	8eq	_	.	.	.	.	.
[8d	day	[8f	day	.	.	.	.	.
=50	=50	=50	=50	=50	=50	=50	=50	=50
4d]	_	4f]	_	1Dm	newline	guitar	.	D:5
4r	.	4r	.	.	.	.	.	.
2r	.	2r	.	.	.	.	.	.
=51	=51	=51	=51	=51	=51	=51	=51	=51
4r	.	1r	.	1CM	.	guitar	.	C:5
8d	'Till	.	.	.	.	.	.	.
8d	the	.	.	.	.	.	.	.
8a	end	.	.	.	.	.	.	.
8g	of	.	.	.	.	.	.	.
8g	the	.	.	.	.	.	.	.
8eq	_	.	.	.	.	.	.	.
[8f	day!	.	.	.	.	.	.	.
=52	=52	=52	=52	=52	=52	=52	=52	=52
*>Letter>B	*>Letter>B	*>Letter>B	*>Letter>B	*>Letter>B	*>Letter>B	*>Letter>B	*>Letter>B	*>Letter>B
*>Label>Solo	*>Label>Solo	*>Label>Solo	*>Label>Solo	*>Label>Solo	*>Label>Solo	*>Label>Solo	*>Label>Solo	*>Label>Solo
4f]	_	1r	.	2Dm	newline	guitar	.	D:5
16r	.	.	.	.	.	.	.	.
8.e	(Grunts)	.	.	.	.	.	.	.
4f	_	.	.	2CM	.	guitar	.	C:5
4r	.	.	.	.	.	.	.	.
=53	=53	=53	=53	=53	=53	=53	=53	=53
1r	.	1r	.	2FM	.	guitar	.	F:5
.	.	.	.	2CM	.	guitar	.	C:5
=54	=54	=54	=54	=54	=54	=54	=54	=54
1r	.	1r	.	2Dm	.	guitar	.	D:5
.	.	.	.	2CM	.	guitar	.	C:5
=55	=55	=55	=55	=55	=55	=55	=55	=55
1r	.	1r	.	2FM	.	guitar	.	F:5
.	.	.	.	2CM	.	guitar	.	C:5
=56	=56	=56	=56	=56	=56	=56	=56	=56
1r	.	1r	.	1Dm	newline	guitar	.	D:5
=57	=57	=57	=57	=57	=57	=57	=57	=57
1r	.	1r	.	1CM	.	guitar	.	C:5
=58	=58	=58	=58	=58	=58	=58	=58	=58
1r	.	1r	.	1FM	.	guitar	.	F:5
=59	=59	=59	=59	=59	=59	=59	=59	=59
1r	.	1r	.	1AM	.	guitar	.	A:5
=60	=60	=60	=60	=60	=60	=60	=60	=60
*>Letter>B	*>Letter>B	*>Letter>B	*>Letter>B	*>Letter>B	*>Letter>B	*>Letter>B	*>Letter>B	*>Letter>B
*>Label>Chorus	*>Label>Chorus	*>Label>Chorus	*>Label>Chorus	*>Label>Chorus	*>Label>Chorus	*>Label>Chorus	*>Label>Chorus	*>Label>Chorus
8d	You	1f	Ah	1Dm	newline	voice	.	D:5
8c#	_	.	.	.	.	.	.	.
8d	and	.	.	.	.	.	.	.
8c#	_	.	.	.	.	.	.	.
8d	me,	.	.	.	.	.	.	.
4d	we're	.	.	.	.	.	.	.
8dq	_	.	.	.	.	.	.	.
[8e	free	.	.	.	.	.	A	.
=61	=61	=61	=61	=61	=61	=61	=61	=61
4.e]	_	1e	_	1CM	.	voice	.	C:5
8r	.	.	.	.	.	.	.	.
2r	.	.	.	.	.	.	.	.
=62	=62	=62	=62	=62	=62	=62	=62	=62
4f	We	1f	_	1Dm	.	voice	.	D:5
4f	do	.	.	.	.	.	.	.
4f	as	.	.	.	.	.	.	.
4f	we	.	.	.	.	.	.	.
=63	=63	=63	=63	=63	=63	=63	=63	=63
4.e	please,	[2e [2g	_	2CM	.	voice	A	C:5
8d	y-	.	.	.	.	.	.	.
16e	-yeah,	8e] 8g]	_	2B-M	.	voice	.	B-:5
16d	_	.	.	.	.	.	.	.
8c	_	8r	.	.	.	.	.	.
8d	from	4r	.	.	.	.	.	.
8~c	_	.	.	.	.	.	.	.
=64	=64	=64	=64	=64	=64	=64	=64	=64
1r	.	2c 2f	Mor-	2FM	newline	voice	.	F:5
.	.	2d 2g	-ning!	2GM	.	voice	.	G:5
=65	=65	=65	=65	=65	=65	=65	=65	=65
4r	.	2d 2f	_	2B-M	.	voice	.	B-:5
8d	'Till	.	.	.	.	.	.	.
8d	the	.	.	.	.	.	.	.
8~e	end	2c# 2e	_	2AM	.	voice	.	A:5
8d	of	.	.	.	.	.	.	.
8d	the	.	.	.	.	.	.	.
8cq	_	.	.	.	.	.	.	.
[8d	day	.	.	.	.	.	.	.
=66	=66	=66	=66	=66	=66	=66	=66	=66
*>Label>>Outro	*>Label>>Outro	*>Label>>Outro	*>Label>>Outro	*>Label>>Outro	*>Label>>Outro	*>Label>>Outro	*>Label>>Outro	*>Label>>Outro
4d]	_	1r	.	1Dm	newline	voice	.	D:5
4r	.	.	.	.	.	.	.	.
2r	.	.	.	.	.	.	.	.
=67	=67	=67	=67	=67	=67	=67	=67	=67
4r	.	1r	.	1CM	.	voice	.	C:5
8d	'Till	.	.	.	.	.	.	.
8d	the	.	.	.	.	.	.	.
8f	end	.	.	.	.	.	.	.
8d	of	.	.	.	.	.	.	.
8d	the	.	.	.	.	.	.	.
8cq	_	.	.	.	.	.	.	.
[8d	day	.	.	.	.	.	.	.
=68	=68	=68	=68	=68	=68	=68	=68	=68
4d]	_	1d	Ah!	1Dm	.	voice	.	D:5
4r	.	.	.	.	.	.	.	.
2r	.	.	.	.	.	.	.	.
=69	=69	=69	=69	=69	=69	=69	=69	=69
4r	.	1e	_	1CM	.	voice	.	C:5
8d	'Till	.	.	.	.	.	.	.
8d	the	.	.	.	.	.	.	.
8f 8a	end	.	.	.	.	.	.	.
8d 8g	of	.	.	.	.	.	.	.
8d 8g	the	.	.	.	.	.	.	.
8eq	_	.	.	.	.	.	.	.
[8f	day	.	.	.	.	.	.	.
=70	=70	=70	=70	=70	=70	=70	=70	=70
4f]	_	1d	_	1Dm	newline	voice	.	D:5
4r	.	.	.	.	.	.	.	.
2r	.	.	.	.	.	.	.	.
=71	=71	=71	=71	=71	=71	=71	=71	=71
4r	.	1c 1e	_	1CM	.	voice	.	C:5
8d	'Till	.	.	.	.	.	.	.
8d	the	.	.	.	.	.	.	.
8f	end	.	.	.	.	.	.	.
8d	of	.	.	.	.	.	.	.
8d	the	.	.	.	.	.	.	.
[8f	day	.	.	.	.	.	.	.
=72	=72	=72	=72	=72	=72	=72	=72	=72
4f]	_	1d 1f	_	1Dm	.	voice	.	D:5
4r	.	.	.	.	.	.	.	.
2r	.	.	.	.	.	.	.	.
=73	=73	=73	=73	=73	=73	=73	=73	=73
4r	.	1c 1e	_	1CM	.	voice	.	C:5
8d	'Till	.	.	.	.	.	.	.
8d	the	.	.	.	.	.	.	.
8f 8~g	end	.	.	.	.	.	.	.
8d 8~g	of	.	.	.	.	.	.	.
8d	the	.	.	.	.	.	.	.
[8f	day	.	.	.	.	.	.	.
=74	=74	=74	=74	=74	=74	=74	=74	=74
4f]	_	1d 1f	_	1Dm	newline	voice	.	D:5
4r	.	.	.	.	.	.	.	.
2r	.	.	.	.	.	.	.	.
=75	=75	=75	=75	=75	=75	=75	=75	=75
4r	.	1c 1e	_	1CM	.	voice	.	C:5
8d	'Till	.	.	.	.	.	.	.
8d	the	.	.	.	.	.	.	.
8f	end	.	.	.	.	.	.	.
8d	of	.	.	.	.	.	.	.
8d	the	.	.	.	.	.	.	.
8cq	_	.	.	.	.	.	.	.
[8d	day	.	.	.	.	.	.	.
=76	=76	=76	=76	=76	=76	=76	=76	=76
1d_	_	1d 1f	_	2Dm	.	guitar	.	D:5
.	.	.	.	2CM	.	guitar	.	C:5
=77	=77	=77	=77	=77	=77	=77	=77	=77
1d]	_	1r	.	2GM	.	guitar	.	G:maj
.	.	.	.	2B-M	.	guitar	.	B-:maj
=78	=78	=78	=78	=78	=78	=78	=78	=78
1r	.	1r	.	1AM	newline	guitar	.	A:maj
r;	.	r;	.	1r;	.	r	.	N.C.
r;	.	r;	.	1r;	.	r	.	N.C.
*-	*-	*-	*-	*-	*-	*-	*-	*-
!!!BillboardChartDate: 1966/04/23
!!!BillboardPeak: 50
!!!BillboardWeeksOnChart: 8
!!!COC: The Kinks
!!!ENC: Nathaniel Condit-Schultz
!!!EST: Awating manual error checking and editing.
!!!OTL: Till The End Of The Day
!!!RDF**chordsym: original McGill chord annotation + (implied pitch class set, with bass pitch in first position)
!!!RDF**harmony: **recip + pitch class of root + harmonic quality
!!!RDF**leadinstrument: original McGill primary instrumentation annotation
!!!RDF**phrase: newline = linebreak in original McGill transcription
!!!RDF**timestamp: McGill audio timestamp in seconds
!!!RDT: 2017/01/12/
!!!SampleActualRank: 61
!!!SampleID#: 0904
!!!SampleTargetRank: 60
